icons/networks/logos/shiden.svg

<svg width="74" height="20" viewBox="0 0 74 20" fill="none" xmlns="http://www.w3.org/2000/svg">
<path d="M12.44 4.33145C10.7816 4.8039 8.33451 5.79207 6.093 7.81762C3.84038 9.93769 5.36965 11.8284 5.38548 11.8472C5.38548 11.8472 4.55993 10.3247 6.55658 8.44879C6.58193 8.42662 9.13072 6.22542 12.8375 5.16952C13.3102 5.03487 13.7879 4.9228 14.2576 4.83645L14.2903 4.83049L14.887 3.86328L14.7405 3.87363C14.7313 3.87442 13.8 3.94401 12.44 4.33145Z" fill="#5928B1"/>
<path d="M14.9911 1.62058C14.6093 1.2992 14.2279 1.04488 14.2241 1.04234L14.2011 1.02734L14.174 1.03054C14.1637 1.03186 13.1347 1.15847 11.7175 1.56224C9.18196 2.2844 5.77193 3.76555 3.92549 6.71851C3.04841 8.05992 3.75432 9.66496 3.75432 9.66496L3.73304 9.25644C3.73073 9.21309 3.60959 4.88586 12.4795 2.35885C13.256 2.13761 14.0898 1.93379 14.9584 1.75248L15.1104 1.72083L14.9911 1.62058Z" fill="#764BC4"/>
<path d="M15.5273 2.18588C15.5159 2.18709 14.349 2.31128 12.7233 2.77426C11.0028 3.26449 8.49758 4.21505 6.33434 5.95891C5.05876 6.94987 4.25142 8.14539 4.11924 9.23911C4.05442 9.77287 4.67997 10.9059 4.67997 10.9059L4.54845 10.5034C4.54245 10.4851 3.98345 8.65204 6.81614 6.52515C8.40338 5.33315 10.0575 4.51736 12.0213 3.95798C13.0337 3.66957 14.0038 3.48012 15.0762 3.27971L15.1139 3.27265L15.1303 3.23769C15.2113 3.06399 15.5976 2.30334 15.6016 2.29573L15.6643 2.17188L15.5273 2.18588Z" fill="#764BC4"/>
<path d="M3.12994 7.75113C3.2368 6.03361 4.5375 4.44668 6.99885 3.03291C8.29595 2.22307 9.74584 1.58682 11.3082 1.1417C12.6333 0.764182 13.7533 0.651468 13.7533 0.651468L12.8525 0C12.8443 0.000992588 12.014 0.103008 10.8276 0.441041C3.21999 2.6083 2.27722 6.34241 2.36138 7.84344C2.50873 10.4604 5.5904 12.3215 5.5904 12.3215C5.5904 12.3215 2.9709 10.3102 3.12994 7.75113Z" fill="#BBA5E1"/>
<path d="M3.22433 15.6691C4.88272 15.1966 7.32978 14.2084 9.5713 12.1829C11.8239 10.0628 10.2947 8.17208 10.2789 8.15332C10.2789 8.15332 11.1044 9.67584 9.10771 11.5517C9.08237 11.5739 6.53361 13.7751 2.82679 14.831C2.35414 14.9657 1.87637 15.0777 1.40667 15.1641L1.37403 15.17L0.777283 16.1372L0.923769 16.1269C0.933045 16.1261 1.86436 16.0565 3.22433 15.6691Z" fill="#5928B1"/>
<path d="M0.673201 18.3793C1.05503 18.7007 1.43642 18.9551 1.44024 18.9576L1.46327 18.9726L1.49034 18.9694C1.5006 18.9681 2.52961 18.8414 3.94677 18.4377C6.48235 17.7155 9.89238 16.2344 11.7389 13.2814C12.6159 11.94 11.91 10.335 11.91 10.335L11.9313 10.7435C11.9336 10.7868 12.0548 15.1141 3.18476 17.6411C2.40834 17.8623 1.5745 18.0661 0.705949 18.2474L0.553894 18.2791L0.673201 18.3793Z" fill="#764BC4"/>
<path d="M0.13699 17.8137C0.148451 17.8125 1.31533 17.6884 2.94098 17.2254C4.6615 16.7351 7.16671 15.7846 9.32994 14.0407C10.6056 13.0498 11.4129 11.8543 11.545 10.7605C11.6099 10.2267 10.9843 9.09375 10.9843 9.09375L11.1158 9.4962C11.1218 9.51451 11.6808 11.3476 8.84815 13.4745C7.26091 14.6665 5.60678 15.4823 3.64295 16.0416C2.63054 16.33 1.66047 16.5195 0.588129 16.7199L0.550361 16.727L0.533988 16.7619C0.452995 16.9356 0.0666937 17.6963 0.062655 17.7039L0 17.8277L0.13699 17.8137Z" fill="#764BC4"/>
<path d="M12.5344 12.2491C12.4275 13.9666 11.1268 15.5536 8.66544 16.9674C7.36834 17.7772 5.91845 18.4134 4.3561 18.8586C3.03106 19.2361 1.91101 19.3488 1.91101 19.3488L2.81176 20.0002C2.82006 19.9992 3.65031 19.8972 4.83669 19.5592C12.4443 17.3919 13.3871 13.6578 13.3029 12.1568C13.1556 9.53981 10.0739 7.67871 10.0739 7.67871C10.0739 7.67871 12.6934 9.69002 12.5344 12.2491Z" fill="#BBA5E1"/>
<path d="M28.7542 12.0015C28.7542 12.3184 28.7135 12.6045 28.6321 12.8597C28.5508 13.1132 28.4438 13.3367 28.3111 13.5303C28.1784 13.724 28.0228 13.8886 27.8441 14.0241C27.6672 14.1614 27.4832 14.2732 27.2922 14.3595C27.1011 14.4457 26.9075 14.51 26.7111 14.5522C26.513 14.5927 26.3272 14.6129 26.1539 14.6129H19.9157V13.0049H26.1539C26.4652 13.0049 26.7067 12.9134 26.8782 12.7303C27.0498 12.549 27.1356 12.3061 27.1356 12.0015C27.1356 11.8537 27.1126 11.7172 27.0666 11.5922C27.0224 11.469 26.9579 11.3617 26.8729 11.2701C26.788 11.1804 26.6837 11.1108 26.5598 11.0615C26.4378 11.0122 26.3025 10.9876 26.1539 10.9876H22.4338C22.1738 10.9876 21.8925 10.9409 21.59 10.8477C21.2875 10.7544 21.0063 10.6047 20.7462 10.3988C20.488 10.1928 20.2722 9.92259 20.0988 9.58815C19.9272 9.2537 19.8414 8.84529 19.8414 8.36298C19.8414 7.88067 19.9272 7.47315 20.0988 7.14043C20.2722 6.80774 20.488 6.53753 20.7462 6.32981C21.0063 6.12212 21.2875 5.9716 21.59 5.87829C21.8925 5.78501 22.1738 5.73836 22.4338 5.73836H27.9396V7.34639H22.4338C22.1278 7.34639 21.889 7.4397 21.7174 7.62629C21.544 7.81111 21.4574 8.05667 21.4574 8.36298C21.4574 8.6728 21.544 8.91746 21.7174 9.09701C21.889 9.2748 22.1278 9.3637 22.4338 9.3637H26.1539H26.1671C26.3405 9.36901 26.5245 9.39277 26.719 9.43501C26.9136 9.47901 27.1073 9.54677 27.3001 9.63832C27.493 9.72811 27.6769 9.84253 27.852 9.98159C28.0254 10.1189 28.1793 10.2844 28.3137 10.478C28.4499 10.6734 28.557 10.8961 28.6348 11.146C28.7144 11.3977 28.7542 11.6829 28.7542 12.0015ZM31.726 5.73836V9.3637H37.4044V5.73836H39.0203V14.6129H37.4044V10.9876H31.726V14.6129H30.1101V5.73836H31.726ZM42.5413 5.73836V14.6129H40.9227V5.73836H42.5413ZM53.3299 9.45084V10.9005C53.3299 11.4409 53.2354 11.9382 53.0461 12.3923C52.8585 12.8447 52.5985 13.2355 52.2661 13.5647C51.9351 13.8921 51.5416 14.1491 51.0854 14.3357C50.6289 14.5205 50.1337 14.6129 49.5992 14.6129H45.2344C45.1178 14.6129 45.0099 14.5927 44.911 14.5522C44.8099 14.51 44.7234 14.4528 44.6506 14.3806C44.5782 14.3084 44.5216 14.223 44.4809 14.1245C44.4403 14.0259 44.4199 13.9185 44.4199 13.8023V6.54898C44.4199 6.43808 44.4403 6.33336 44.4809 6.23477C44.5216 6.13443 44.5782 6.04729 44.6506 5.97336C44.7234 5.89943 44.8099 5.84132 44.911 5.79908C45.0099 5.7586 45.1178 5.73836 45.2344 5.73836H49.5992C50.1337 5.73836 50.6289 5.83167 51.0854 6.01825C51.5416 6.20308 51.9351 6.45922 52.2661 6.78663C52.5985 7.1158 52.8585 7.50836 53.0461 7.96425C53.2354 8.42018 53.3299 8.9157 53.3299 9.45084ZM51.714 10.9005V9.45084C51.714 9.13753 51.6627 8.85146 51.5603 8.5927C51.4596 8.33218 51.3151 8.11036 51.1278 7.92729C50.942 7.74246 50.7192 7.59987 50.4592 7.49953C50.2009 7.39746 49.9144 7.34639 49.5992 7.34639H46.0358V13.0049H49.5992C49.9144 13.0049 50.2009 12.9539 50.4592 12.8518C50.7192 12.7514 50.942 12.6088 51.1278 12.424C51.3151 12.2409 51.4596 12.0209 51.5603 11.7639C51.6627 11.5051 51.714 11.2173 51.714 10.9005ZM62.2482 9.3637V10.9876H57.143V9.3637H62.2482ZM62.9751 13.0049V14.6129H57.143C56.9182 14.6129 56.6733 14.5733 56.4078 14.4941C56.1427 14.4167 55.8975 14.2882 55.673 14.1086C55.4465 13.9291 55.2571 13.6958 55.1051 13.4089C54.9547 13.122 54.8796 12.7708 54.8796 12.3553V6.54898C54.8796 6.43808 54.8999 6.33336 54.9406 6.23477C54.983 6.13443 55.0406 6.04729 55.113 5.97336C55.1858 5.89943 55.2713 5.84132 55.3706 5.79908C55.4696 5.7586 55.5775 5.73836 55.6944 5.73836H62.9751V7.34639H56.4954V12.3553C56.4954 12.5648 56.5513 12.725 56.6627 12.8359C56.7758 12.9486 56.9406 13.0049 57.1561 13.0049H62.9751ZM73.4482 5.73836V13.9264C73.4482 14.0409 73.4268 14.1482 73.3844 14.2486C73.3402 14.3471 73.282 14.4325 73.2092 14.5047C73.1368 14.5769 73.0509 14.6332 72.952 14.6737C72.8513 14.7159 72.7451 14.737 72.6337 14.737C72.5344 14.737 72.4337 14.7186 72.3309 14.6816C72.2302 14.6446 72.1399 14.5848 72.0606 14.502L66.154 8.36298V14.6129H64.5382V6.42488C64.5382 6.25939 64.584 6.10977 64.6761 5.97601C64.7699 5.84222 64.8892 5.74277 65.0344 5.67763C65.1882 5.61426 65.3454 5.59843 65.5064 5.63008C65.6692 5.66177 65.8082 5.73746 65.923 5.85719L71.8323 11.9883V5.73836H73.4482Z" fill="#5928B1"/>
</svg>

<svg viewBox="0 0 74 20" fill="none" xmlns="http://www.w3.org/2000/svg">
  <path d="M12.44 4.331c-1.658.473-4.105 1.461-6.347 3.487-2.253 2.12-.723 4.01-.708 4.03 0 0-.825-1.523 1.172-3.4.025-.021 2.574-2.223 6.28-3.278.473-.135.95-.247 1.42-.334l.033-.006.597-.967-.146.01c-.01.001-.941.071-2.301.458Z" fill="#5928B1"/>
  <path d="M14.991 1.62c-.382-.32-.763-.575-.767-.578l-.023-.015-.027.004c-.01 0-1.04.127-2.457.531-2.535.722-5.945 2.204-7.792 5.157-.877 1.34-.17 2.946-.17 2.946l-.022-.409c-.002-.043-.123-4.37 8.746-6.897.777-.221 1.61-.425 2.48-.607l.151-.031-.119-.1Z" fill="#764BC4"/>
  <path d="M15.527 2.186c-.011.001-1.178.125-2.804.588-1.72.49-4.225 1.441-6.389 3.185-1.275.99-2.083 2.186-2.215 3.28-.065.534.561 1.667.561 1.667l-.132-.403c-.006-.018-.565-1.851 2.268-3.978 1.587-1.192 3.241-2.008 5.205-2.567 1.013-.288 1.983-.478 3.055-.678l.038-.007.016-.035c.081-.174.468-.935.472-.942l.062-.124-.137.014Z" fill="#764BC4"/>
  <path d="M3.13 7.751c.107-1.717 1.407-3.304 3.869-4.718a16.835 16.835 0 0 1 4.31-1.891c1.324-.378 2.444-.49 2.444-.49l-.9-.652c-.009.001-.839.103-2.025.441C3.22 2.608 2.278 6.342 2.36 7.843c.148 2.617 3.23 4.479 3.23 4.479S2.97 10.31 3.13 7.752Z" fill="#BBA5E1"/>
  <path d="M3.224 15.67c1.659-.473 4.106-1.462 6.347-3.487 2.253-2.12.724-4.01.708-4.03 0 0 .825 1.523-1.171 3.399-.026.022-2.574 2.223-6.281 3.279-.473.135-.95.247-1.42.333l-.033.006-.597.967.147-.01c.009 0 .94-.07 2.3-.458Z" fill="#5928B1"/>
  <path d="M.673 18.38c.382.32.763.575.767.578l.023.015.027-.004c.01 0 1.04-.128 2.457-.531 2.535-.723 5.945-2.204 7.792-5.157.877-1.341.171-2.946.171-2.946l.021.408c.003.044.124 4.371-8.746 6.898-.777.221-1.61.425-2.48.606l-.151.032.12.1Z" fill="#764BC4"/>
  <path d="M.137 17.814c.011-.002 1.178-.126 2.804-.589 1.72-.49 4.226-1.44 6.389-3.184 1.276-.991 2.083-2.187 2.215-3.28.065-.534-.56-1.667-.56-1.667l.13.402c.007.019.566 1.852-2.267 3.979-1.587 1.191-3.241 2.007-5.205 2.567-1.012.288-1.983.477-3.055.678l-.038.007-.016.035c-.081.174-.467.934-.471.942L0 17.828l.137-.014Z" fill="#764BC4"/>
  <path d="M12.534 12.25c-.107 1.717-1.407 3.304-3.869 4.717a16.84 16.84 0 0 1-4.309 1.892c-1.325.377-2.445.49-2.445.49l.9.651a14.67 14.67 0 0 0 2.026-.44c7.607-2.168 8.55-5.902 8.466-7.403-.147-2.617-3.23-4.478-3.23-4.478s2.62 2.011 2.461 4.57Z" fill="#BBA5E1"/>
  <path d="M28.754 12.002c0 .316-.04.602-.122.858a2.562 2.562 0 0 1-.32.67 2.11 2.11 0 0 1-.468.494 2.74 2.74 0 0 1-.552.336 2.79 2.79 0 0 1-1.138.253h-6.238v-1.608h6.238c.311 0 .553-.092.724-.275.172-.181.258-.424.258-.729 0-.147-.023-.284-.07-.409a.864.864 0 0 0-.507-.53 1.074 1.074 0 0 0-.405-.074h-3.72c-.26 0-.542-.047-.844-.14a2.574 2.574 0 0 1-.844-.45 2.475 2.475 0 0 1-.647-.81c-.172-.334-.258-.743-.258-1.225 0-.482.086-.89.258-1.223.173-.332.389-.602.647-.81.26-.208.542-.358.844-.452.302-.093.584-.14.844-.14h5.506v1.608h-5.506c-.306 0-.545.094-.717.28-.173.185-.26.43-.26.737 0 .31.087.554.26.734.172.178.41.267.717.267h3.733a2.786 2.786 0 0 1 1.133.275c.193.09.377.204.552.343.173.137.327.302.462.496.136.195.243.418.32.668.08.252.12.537.12.855Zm2.972-6.264v3.626h5.678V5.738h1.616v8.875h-1.616v-3.625h-5.678v3.625H30.11V5.738h1.616Zm10.815 0v8.875h-1.618V5.738h1.618ZM53.33 9.451v1.45a3.84 3.84 0 0 1-.284 1.491 3.536 3.536 0 0 1-.78 1.173 3.591 3.591 0 0 1-1.18.77 3.923 3.923 0 0 1-1.487.278h-4.365a.805.805 0 0 1-.584-.232.776.776 0 0 1-.17-.257.838.838 0 0 1-.06-.322V6.55a.817.817 0 0 1 .23-.576.786.786 0 0 1 .584-.235H49.6c.535 0 1.03.094 1.486.28.457.185.85.441 1.181.769.333.329.593.721.78 1.177.19.456.284.952.284 1.487Zm-1.616 1.45V9.45c0-.313-.051-.6-.154-.858a1.85 1.85 0 0 0-.432-.666 1.91 1.91 0 0 0-.669-.427 2.32 2.32 0 0 0-.86-.154h-3.563v5.659h3.563c.315 0 .602-.051.86-.153.26-.1.483-.243.669-.428.187-.183.332-.403.432-.66.103-.259.154-.547.154-.864Zm10.534-1.537v1.624h-5.105V9.364h5.105Zm.727 3.64v1.609h-5.832c-.225 0-.47-.04-.735-.119a2.119 2.119 0 0 1-.735-.385 2.178 2.178 0 0 1-.568-.7c-.15-.287-.225-.638-.225-1.054V6.55a.815.815 0 0 1 .233-.576.792.792 0 0 1 .581-.235h7.281v1.608h-6.48v5.01c0 .209.056.369.168.48.113.113.278.169.493.169h5.82Zm10.473-7.266v8.188a.82.82 0 0 1-.064.323.842.842 0 0 1-.175.256.816.816 0 0 1-.575.232.89.89 0 0 1-.303-.055.711.711 0 0 1-.27-.18l-5.907-6.139v6.25h-1.616V6.425c0-.166.046-.315.138-.449a.862.862 0 0 1 .358-.298.805.805 0 0 1 .889.18l5.91 6.13v-6.25h1.615Z" fill="#5928B1"/>
</svg>
